X: 99
T:The Steampacket
R:Reel
M:4/4
L:1/8
K:C
~G3c AGFG|AG~G2 Ad{e}dc|AcGc AFDE|FEFG Ad{e}dc|
AG~G2 AGFG|AG~G2 A2dc|AcGc AFDE|JF2zG ABcA||
dg~g2 ag~g2|dg{a}ge ^fdcA|dg~g2 ag~g2|~d3e ^fdcA|
dg~g2 ag~g2|abag J^f3g|(3ag^f {a}ge fdcA|d^cde ^fdcA||
